front/src/Assets/image/payment/PayPal.svg

<svg width="23" height="28" viewBox="0 0 23 28" fill="none" xmlns="http://www.w3.org/2000/svg">
<path fill-rule="evenodd" clip-rule="evenodd" d="M7.08806 26.6652L7.5425 23.7066L6.53018 23.6824H1.6962L5.05565 1.84959C5.06611 1.78348 5.09995 1.72211 5.14936 1.67845C5.19901 1.63479 5.2623 1.61084 5.3285 1.61084H13.4793C16.1855 1.61084 18.0529 2.18789 19.0277 3.32702C19.4848 3.86141 19.7759 4.41999 19.9169 5.03447C20.0646 5.67937 20.067 6.44977 19.923 7.38956L19.9125 7.45792V8.06017L20.3696 8.32562C20.7544 8.53493 21.0604 8.77443 21.295 9.04861C21.6859 9.50566 21.9388 10.0865 22.0457 10.7748C22.1562 11.4828 22.1197 12.3255 21.9388 13.2796C21.7302 14.3768 21.3931 15.3325 20.9377 16.1144C20.519 16.8349 19.9855 17.4327 19.3519 17.8957C18.7471 18.3358 18.0285 18.6698 17.2161 18.8836C16.4287 19.0937 15.531 19.1997 14.5464 19.1997H13.9121C13.4587 19.1997 13.0181 19.3671 12.6722 19.6673C12.3254 19.9736 12.0961 20.3923 12.0257 20.8501L11.9778 21.1165L11.1748 26.3314L11.1385 26.5227C11.1288 26.5834 11.1122 26.6136 11.0879 26.634C11.0662 26.6527 11.0351 26.6652 11.0047 26.6652H7.08806Z" fill="#28356A"/>
<path fill-rule="evenodd" clip-rule="evenodd" d="M20.8028 7.52734C20.7787 7.68676 20.7507 7.84967 20.7196 8.01707C19.6447 13.6738 15.9671 15.628 11.2704 15.628H8.87897C8.30454 15.628 7.82041 16.0553 7.73108 16.6361L6.15991 26.8511C6.10174 27.2326 6.38847 27.5761 6.76379 27.5761H11.0053C11.5075 27.5761 11.9342 27.2021 12.0133 26.6944L12.0549 26.4737L12.8535 21.2792L12.9049 20.9943C12.983 20.4849 13.4106 20.1107 13.9128 20.1107H14.5471C18.6565 20.1107 21.8735 18.4007 22.8138 13.452C23.2064 11.3848 23.0032 9.65866 21.9638 8.44468C21.6494 8.0787 21.2592 7.77483 20.8028 7.52734Z" fill="#298FC2"/>
<path fill-rule="evenodd" clip-rule="evenodd" d="M19.6779 7.06803C19.5136 7.01889 19.3442 6.97448 19.1704 6.93431C18.9956 6.89514 18.8167 6.86047 18.6325 6.83003C17.9877 6.72325 17.2811 6.67261 16.5243 6.67261H10.1357C9.97825 6.67261 9.8288 6.70903 9.69517 6.77489C9.40041 6.92009 9.18159 7.206 9.12853 7.55602L7.76937 16.3792L7.73042 16.6364C7.81975 16.0556 8.30388 15.6282 8.87831 15.6282H11.2697C15.9665 15.6282 19.644 13.673 20.7189 8.01731C20.751 7.84991 20.7781 7.687 20.8022 7.52758C20.5303 7.37964 20.2358 7.25315 19.9186 7.14537C19.8402 7.11868 19.7594 7.09298 19.6779 7.06803Z" fill="#22284F"/>
<path fill-rule="evenodd" clip-rule="evenodd" d="M9.1289 7.55596C9.18196 7.20594 9.40078 6.92003 9.69554 6.77583C9.83014 6.70972 9.97862 6.6733 10.1361 6.6733H16.5247C17.2814 6.6733 17.988 6.72419 18.6328 6.83097C18.8171 6.86116 18.996 6.89608 19.1707 6.93525C19.3445 6.97517 19.5139 7.01982 19.6782 7.06872C19.7598 7.09367 19.8406 7.11962 19.9197 7.14531C20.2368 7.25309 20.5316 7.38057 20.8035 7.52752C21.1233 5.43712 20.8008 4.01383 19.6982 2.72501C18.4824 1.30597 16.2884 0.69873 13.4807 0.69873H5.32962C4.75616 0.69873 4.26692 1.12609 4.17832 1.70788L0.783332 23.7652C0.716396 24.2016 1.04475 24.5952 1.47411 24.5952H6.50623L9.1289 7.55596Z" fill="#28356A"/>
</svg>

<svg xmlns="http://www.w3.org/2000/svg" fill="none" viewBox="0 0 23 28">
  <path fill="#28356A" fill-rule="evenodd" d="M7.088 26.665l.455-2.958-1.013-.025H1.696L5.056 1.85a.29.29 0 01.093-.172.27.27 0 01.18-.067h8.15c2.707 0 4.574.577 5.549 1.716.457.534.748 1.093.889 1.707.148.645.15 1.416.006 2.356l-.01.068v.602l.457.266c.384.209.69.448.925.723.39.457.644 1.037.75 1.726.111.708.075 1.55-.106 2.505-.209 1.097-.546 2.053-1.001 2.834a5.776 5.776 0 01-1.586 1.782 6.359 6.359 0 01-2.136.988c-.787.21-1.685.316-2.67.316h-.634c-.453 0-.894.167-1.24.467a1.98 1.98 0 00-.646 1.183l-.048.266-.803 5.215-.037.192c-.01.06-.026.09-.05.111a.132.132 0 01-.083.031H7.088z" clip-rule="evenodd"/>
  <path fill="#298FC2" fill-rule="evenodd" d="M20.803 7.527c-.024.16-.052.323-.083.49-1.075 5.657-4.753 7.611-9.45 7.611H8.88a1.17 1.17 0 00-1.148 1.008L6.16 26.851a.622.622 0 00.604.725h4.241c.502 0 .93-.374 1.008-.882l.042-.22.799-5.195.05-.285c.079-.51.507-.883 1.009-.883h.634c4.11 0 7.326-1.71 8.267-6.659.392-2.067.19-3.793-.85-5.007a4.064 4.064 0 00-1.161-.918z" clip-rule="evenodd"/>
  <path fill="#22284F" fill-rule="evenodd" d="M19.678 7.068a8.277 8.277 0 00-1.046-.238 12.978 12.978 0 00-2.108-.157h-6.388a.993.993 0 00-.44.102 1.042 1.042 0 00-.567.781l-1.36 8.823-.039.257a1.17 1.17 0 011.148-1.008h2.392c4.697 0 8.374-1.955 9.449-7.61.032-.168.06-.331.083-.49a5.641 5.641 0 00-.883-.383 8.18 8.18 0 00-.241-.077z" clip-rule="evenodd"/>
  <path fill="#28356A" fill-rule="evenodd" d="M9.129 7.556c.053-.35.272-.636.567-.78a.993.993 0 01.44-.103h6.389c.756 0 1.463.051 2.108.158a8.27 8.27 0 011.287.314c.317.108.612.236.884.383.32-2.09-.003-3.514-1.106-4.803-1.216-1.419-3.41-2.026-6.217-2.026H5.33c-.574 0-1.063.427-1.152 1.009L.783 23.765a.712.712 0 00.691.83h5.032L9.13 7.556z" clip-rule="evenodd"/>
</svg>
